plugins/kotlin/frontend-independent/resources/org/jetbrains/kotlin/idea/icons/enumKotlin.svg

<svg xmlns="http://www.w3.org/2000/svg" width="16" height="16" viewBox="0 0 16 16">
  <defs>
    <linearGradient id="enumkotlin-a" x1="-16.836%" x2="76.219%" y1="91.94%" y2="-1.116%">
      <stop offset="10.75%" stop-color="#C757BC"/>
      <stop offset="21.38%" stop-color="#D0609A"/>
      <stop offset="42.54%" stop-color="#E1725C"/>
      <stop offset="60.48%" stop-color="#EE7E2F"/>
      <stop offset="74.3%" stop-color="#F58613"/>
      <stop offset="82.32%" stop-color="#F88909"/>
    </linearGradient>
  </defs>
  <g fill="none" fill-rule="evenodd">
    <path fill="#40B6E0" fill-opacity=".6" d="M8,15 C4.134,15 1,11.866 1,8 C1,4.134 4.134,1 8,1 C11.866,1 15,4.134 15,8 L8,8 L8,15 Z"/>
    <path fill="#231F20" fill-opacity=".7" d="M8,11 L6,11 L6,5 L10,5 L10,6 L7,6 L7,7 L9,7 L9,8 L7,8 L7,10 L8,10 L8,11 Z"/>
    <g transform="translate(9 9)">
      <polygon fill="#0EAEFF" fill-rule="nonzero" points="0 7 3.512 3.488 7 7"/>
      <polygon fill="#0EAEFF" fill-rule="nonzero" points="0 0 3.512 0 0 3.792"/>
      <polygon fill="url(#enumkotlin-a)" fill-rule="nonzero" points="3.512 0 0 3.698 0 7 3.512 3.488 7 0"/>
    </g>
  </g>
</svg>

<?xml version="1.0" encoding="utf-8"?>
<!-- Generator: Adobe Illustrator 24.1.2, SVG Export Plug-In . SVG Version: 6.00 Build 0)  -->
<svg version="1.1" id="Layer_1" xmlns="http://www.w3.org/2000/svg" xmlns:xlink="http://www.w3.org/1999/xlink" x="0px" y="0px"
	 viewBox="0 0 16 16" style="enable-background:new 0 0 16 16;" xml:space="preserve">
<style type="text/css">
	.st0{fill-rule:evenodd;clip-rule:evenodd;fill:#40B6E0;fill-opacity:0.6;}
	.st1{fill-rule:evenodd;clip-rule:evenodd;fill:#231F20;fill-opacity:0.7;}
	.st2{fill:#7F52FF;}
</style>
<g>
	<path class="st0" d="M8,15c-3.9,0-7-3.1-7-7s3.1-7,7-7s7,3.1,7,7H8V15z"/>
	<path class="st1" d="M8,11H6V5h4v1H7v1h2v1H7v2h1V11z"/>
	<polygon class="st2" points="16,16 9,16 9,9 16,9 12.5,12.5 	"/>
</g>
</svg>
